X:124
T:Mullindhu
D:Jock Tamson's Bairns
Z:Nigel Gatherer
M:4/4
L:1/8
K:C
A>G AB C2 BA|GC C/B,/C GC C/B,/C|A>G AB C2 BA|GC C/B,/C D3 z:|
ADAD AD D/C/D|GCGC GC C/B,/C|A>G AB C2 BA|GC C/B,/C D3 z:|
<end>
<start>
